resources/svg/wechat-fill.svg

<svg fill="currentColor" viewBox="0 0 24 24" xmlns="http://www.w3.org/2000/svg"><path d="M18.5753 13.7114C19.0742 13.7114 19.4733 13.2873 19.4733 12.8134C19.4733 12.3145 19.0742 11.9155 18.5753 11.9155C18.0765 11.9155 17.6774 12.3145 17.6774 12.8134C17.6774 13.3123 18.0765 13.7114 18.5753 13.7114ZM14.1497 13.7114C14.6485 13.7114 15.0476 13.2873 15.0476 12.8134C15.0476 12.3145 14.6485 11.9155 14.1497 11.9155C13.6508 11.9155 13.2517 12.3145 13.2517 12.8134C13.2517 13.3123 13.6508 13.7114 14.1497 13.7114ZM20.717 18.7516C20.5942 18.8253 20.5205 18.9482 20.5451 19.1202C20.5451 19.1693 20.5451 19.2185 20.5696 19.2676C20.6679 19.6854 20.8643 20.349 20.8643 20.3736C20.8643 20.4473 20.8889 20.4964 20.8889 20.5456C20.8889 20.6685 20.7907 20.7668 20.6679 20.7668C20.6187 20.7668 20.5942 20.7422 20.5451 20.7176L19.0961 19.882C18.9978 19.8329 18.875 19.7837 18.7522 19.7837C18.6786 19.7837 18.6049 19.7837 18.5558 19.8083C17.8681 20.0049 17.1559 20.1032 16.3946 20.1032C12.7352 20.1032 9.78815 17.6456 9.78815 14.5983C9.78815 11.5509 12.7352 9.09329 16.3946 9.09329C20.0539 9.09329 23.001 11.5509 23.001 14.5983C23.001 16.2448 22.1168 17.7439 20.717 18.7516ZM16.6737 8.09757C16.581 8.09473 16.488 8.09329 16.3946 8.09329C12.2199 8.09329 8.78815 10.9536 8.78815 14.5983C8.78815 15.1519 8.86733 15.6874 9.01626 16.1975H8.92711C8.04096 16.1975 7.15481 16.0503 6.3425 15.8296C6.26866 15.805 6.19481 15.805 6.12097 15.805C5.97327 15.805 5.82558 15.8541 5.7025 15.9277L3.95482 16.9334C3.90559 16.958 3.85635 16.9825 3.80712 16.9825C3.65943 16.9825 3.53636 16.8599 3.53636 16.7127C3.53636 16.6391 3.56097 16.59 3.58559 16.5164C3.6102 16.4919 3.83174 15.6824 3.95482 15.1918C3.95482 15.1427 3.97943 15.0691 3.97943 15.0201C3.97943 14.8238 3.88097 14.6766 3.75789 14.5785C2.05944 13.3765 1.00098 11.5858 1.00098 9.59876C1.00098 5.94369 4.5702 3 8.95173 3C12.7157 3 15.8802 5.16856 16.6737 8.09757ZM11.5199 8.51604C12.0927 8.51604 12.5462 8.03871 12.5462 7.4898C12.5462 6.91701 12.0927 6.46356 11.5199 6.46356C10.9471 6.46356 10.4937 6.91701 10.4937 7.4898C10.4937 8.06258 10.9471 8.51604 11.5199 8.51604ZM6.26045 8.51604C6.83324 8.51604 7.28669 8.03871 7.28669 7.4898C7.28669 6.91701 6.83324 6.46356 6.26045 6.46356C5.68767 6.46356 5.23421 6.91701 5.23421 7.4898C5.23421 8.06258 5.68767 8.51604 6.26045 8.51604Z"/></svg>

<svg xmlns="http://www.w3.org/2000/svg" viewBox="0 0 24 24" fill="currentColor">
    <g>
        <path fill="none" d="M0 0h24v24H0z"/>
        <path d="M18.574 13.711a.91.91 0 0 0 .898-.898c0-.498-.399-.898-.898-.898s-.898.4-.898.898c0 .5.4.898.898.898zm-4.425 0a.91.91 0 0 0 .898-.898c0-.498-.4-.898-.898-.898-.5 0-.898.4-.898.898 0 .5.399.898.898.898zm6.567 5.04a.347.347 0 0 0-.172.37c0 .048 0 .097.025.147.098.417.294 1.081.294 1.106 0 .073.025.122.025.172a.22.22 0 0 1-.221.22c-.05 0-.074-.024-.123-.048l-1.449-.836a.799.799 0 0 0-.344-.098c-.073 0-.147 0-.196.024-.688.197-1.4.295-2.161.295-3.66 0-6.607-2.457-6.607-5.505 0-3.047 2.947-5.505 6.607-5.505 3.659 0 6.606 2.458 6.606 5.505 0 1.647-.884 3.146-2.284 4.154zM16.673 8.099a9.105 9.105 0 0 0-.28-.005c-4.174 0-7.606 2.86-7.606 6.505 0 .554.08 1.09.228 1.6h-.089a9.963 9.963 0 0 1-2.584-.368c-.074-.025-.148-.025-.222-.025a.832.832 0 0 0-.418.123l-1.748 1.005c-.05.025-.099.05-.148.05a.273.273 0 0 1-.27-.27c0-.074.024-.123.049-.197.024-.024.246-.834.369-1.324 0-.05.024-.123.024-.172a.556.556 0 0 0-.221-.442C2.058 13.376 1 11.586 1 9.598 1 5.945 4.57 3 8.95 3c3.765 0 6.93 2.169 7.723 5.098zm-5.154.418c.573 0 1.026-.477 1.026-1.026 0-.573-.453-1.026-1.026-1.026s-1.026.453-1.026 1.026.453 1.026 1.026 1.026zm-5.26 0c.573 0 1.027-.477 1.027-1.026 0-.573-.454-1.026-1.027-1.026-.572 0-1.026.453-1.026 1.026s.454 1.026 1.026 1.026z"/>
    </g>
</svg>
